!!!COM: sobodaycom
!!!OTL: Cueca Del Estudiante
**kern
*I"Guitarra acústica
*I'Guit. ac.
!!pagebreak:original
*clefG2
*Trd0c0
*k[f#c#g#d#]
*E:
*M6/8
!LO:TX:t=[quarter]=120
16bLL
16b
16b
16bJJ
=1!|:
8bL
8a#X
8anJ
8g#L
8f#
8eJ
=2
8d#L
8c#
(8bJ
4.b)
=3
8bL
8b
8dd#J
4ee
8cc#
=4
4.b
16ryy
16bLL
16b
16b
16bJJ
16r
=5:|!
8bL
16cc#L
16cc#J
8a#XJ
8bL
8cc#
8dd#J
!!linebreak:original
=6
4.ee
8r
4an 4b 4dd#
=7
4.g# 4.b 4.ee
8r
4a 4b 4dd#
=8
(((4.g# 4.b 4.dd#
8g# 8b 8dd#)))
4r
=9!|:
8.bL
16bk
8bJ
4ee
8dd#
=10
4cc#
(8ee
4ee)
8r
=11
8.dd#L
16dd#k
8dd#J
8dd#L
8cc#
8cc#J
=12
(4.b
4b)
8r
!!linebreak:original
=13
8.g#L
16g#k
8g#J
4b
8b
=14
4b
8a
4cc#
8cc#
=15
8cc#L
8b
8d#J
8e
4f#
=16
(4.e
4e)
8r
=17
8.g#L
16g#k
8g#J
4b
8b
=18
4b
8a
4cc#
8cc#
=19
8cc#L
8b
8d#J
8e
4f#
!!linebreak:original
=20
(4.e
4e)
8r
=21:|!
8.g#L
16g#k
8g#J
8g#L
8f#
8eJ
=22
4f#
(8c#
4c#)
8r
=23
8g#L
8g#
8g#J
8bL
8b
8bJ
=24
4a
8a
4cc#
8cc#
=25
8cc#L
8b
8d#J
8e
4f#
!!linebreak:original
=26
(4.e
4e)
8r
=27
8g#L
8g#
8g#J
8bL
8b
8bJ
=28
4a
8a
4cc#
8cc#
=29
8cc#L
8b
8d#J
8e
4f#
=30
(4.e
4e)
8r
=31
4%3r
=
*-